app/assets/images/remix_icon/user/spy-line.svg

<svg viewBox="0 0 24 24" xmlns="http://www.w3.org/2000/svg"><path d="M17 13C19.2091 13 21 14.7909 21 17C21 19.2091 19.2091 21 17 21C14.7909 21 13 19.2091 13 17H11C11 19.2091 9.20914 21 7 21C4.79086 21 3 19.2091 3 17C3 14.7909 4.79086 13 7 13C8.48052 13 9.77317 13.8043 10.4648 14.9999H13.5352C14.2268 13.8043 15.5195 13 17 13ZM7 15C5.89543 15 5 15.8954 5 17C5 18.1046 5.89543 19 7 19C8.10457 19 9 18.1046 9 17C9 15.8954 8.10457 15 7 15ZM17 15C15.8954 15 15 15.8954 15 17C15 18.1046 15.8954 19 17 19C18.1046 19 19 18.1046 19 17C19 15.8954 18.1046 15 17 15ZM16 3C18.2091 3 20 4.79086 20 7V10H22V12H2V10H4V7C4 4.79086 5.79086 3 8 3H16ZM16 5H8C6.94564 5 6 5.95 6 7V10H18V7C18 5.94564 17.05 5 16 5Z"/></svg>

<svg xmlns="http://www.w3.org/2000/svg" viewBox="0 0 24 24">
    <g>
        <path fill="none" d="M0 0h24v24H0z"/>
        <path fill-rule="nonzero" d="M17 13a4 4 0 1 1-4 4h-2a4 4 0 1 1-.535-2h3.07A3.998 3.998 0 0 1 17 13zM7 15a2 2 0 1 0 0 4 2 2 0 0 0 0-4zm10 0a2 2 0 1 0 0 4 2 2 0 0 0 0-4zM16 3a4 4 0 0 1 4 4v3h2v2H2v-2h2V7a4 4 0 0 1 4-4h8zm0 2H8c-1.054 0-2 .95-2 2v3h12V7c0-1.054-.95-2-2-2z"/>
    </g>
</svg>
